X: 2
T: Peninsula Man
Z: jdicarlo
S: https://thesession.org/tunes/10877#setting28309
R: reel
M: 4/4
L: 1/8
K: Emin
B,DFG E2Ed | BEEB dEBc | AGFG ADDF | ADAB BcBA |
B2AB GE~E2 | BccB AGFB | dABd efeB |1 c/B/A BG AGFD :|2 c/B/A BG AGFB ||
eBeg fBBf | fgfd edBA | GABG FD (3DDD | ^cddA BAFB |
~e3f g/f/e fg | a2 g/f/e fdBA | GABG FDD^c |1 dBAB GEEB :|2 dBAB GEED ||
